build/assets/images/svg/social/b-vk.svg

<svg width="48" height="48" viewBox="0 0 48 48" fill="none" xmlns="http://www.w3.org/2000/svg">
<path fill-rule="evenodd" clip-rule="evenodd" d="M0 24C0 37.2548 10.7452 48 24 48C37.2548 48 48 37.2548 48 24C48 10.7452 37.2548 0 24 0C10.7452 0 0 10.7452 0 24ZM25.7137 31.5984C25.4456 31.8769 24.9222 31.9331 24.9222 31.9331H23.1889C23.1889 31.9331 19.3649 32.1553 15.9963 28.7645C12.3226 25.065 9.07878 17.7249 9.07878 17.7249C9.07878 17.7249 8.89155 17.2435 9.09438 17.0116C9.32274 16.7496 9.94541 16.7332 9.94541 16.7332L14.0885 16.7071C14.0885 16.7071 14.4786 16.7688 14.758 16.9677C14.9892 17.1324 15.1183 17.4382 15.1183 17.4382C15.1183 17.4382 15.7878 19.0761 16.6743 20.5575C18.4061 23.4505 19.2118 24.0828 19.799 23.7728C20.6557 23.3215 20.399 19.6837 20.399 19.6837C20.399 19.6837 20.4146 18.3641 19.9678 17.7757C19.6217 17.3203 18.9692 17.1872 18.6813 17.1502C18.4472 17.12 18.8302 16.596 19.3267 16.3614C20.0727 16.0089 21.389 15.9883 22.945 16.0034C24.1577 16.0158 24.5066 16.0885 24.9804 16.1996C26.0799 16.4562 26.0455 17.2785 25.9715 19.0532C25.9493 19.584 25.9236 20.1999 25.9236 20.9114C25.9236 21.0713 25.9188 21.2417 25.9138 21.4171C25.8881 22.3263 25.8587 23.3674 26.4782 23.755C26.7959 23.9525 27.5718 23.7838 29.5135 20.5959C30.4341 19.0843 31.1234 17.3079 31.1234 17.3079C31.1234 17.3079 31.2752 16.9911 31.5092 16.8553C31.7489 16.7167 32.0723 16.7592 32.0723 16.7592L36.4324 16.7332C36.4324 16.7332 37.743 16.5809 37.9544 17.1543C38.1771 17.7537 37.465 19.1556 35.6835 21.4519C33.995 23.629 33.1725 24.4316 33.2466 25.1406C33.3008 25.6597 33.8354 26.1286 34.8623 27.0498C37.0038 28.9726 37.5778 29.9843 37.7157 30.2273C37.7271 30.2474 37.7355 30.2623 37.7416 30.272C38.7019 31.8124 36.6764 31.9331 36.6764 31.9331L32.8028 31.9853C32.8028 31.9853 31.9716 32.1444 30.8766 31.4174C30.303 31.0369 29.7425 30.4154 29.2086 29.8235C28.3933 28.9195 27.6402 28.0843 26.9973 28.2816C25.9179 28.6136 25.9505 30.8618 25.9505 30.8618C25.9505 30.8618 25.959 31.3433 25.7137 31.5984Z" fill="#203686"/>
</svg>

<svg width="48" height="48" fill="none" xmlns="http://www.w3.org/2000/svg"><path fill-rule="evenodd" clip-rule="evenodd" d="M0 24c0 13.255 10.745 24 24 24s24-10.745 24-24S37.255 0 24 0 0 10.745 0 24zm25.714 7.598c-.268.279-.792.335-.792.335H23.19s-3.824.222-7.193-3.168c-3.673-3.7-6.917-11.04-6.917-11.04s-.187-.482.015-.713c.229-.262.851-.279.851-.279l4.143-.026s.39.062.67.26c.231.165.36.471.36.471s.67 1.638 1.556 3.12c1.732 2.893 2.538 3.525 3.125 3.215.857-.451.6-4.09.6-4.09s.016-1.319-.431-1.907c-.346-.456-.999-.589-1.287-.626-.234-.03.15-.554.646-.789.746-.352 2.062-.373 3.618-.358 1.213.013 1.562.085 2.035.197 1.1.256 1.066 1.079.991 2.853a43.156 43.156 0 00-.047 1.858c0 .16-.005.33-.01.506-.026.91-.055 1.95.564 2.338.318.198 1.094.029 3.035-3.16.921-1.51 1.61-3.287 1.61-3.287s.152-.317.386-.453c.24-.138.563-.096.563-.096l4.36-.026s1.311-.152 1.522.421c.223.6-.489 2.002-2.27 4.298-1.689 2.177-2.511 2.98-2.437 3.689.054.519.588.988 1.615 1.909 2.142 1.923 2.716 2.934 2.854 3.177l.026.045c.96 1.54-1.066 1.661-1.066 1.661l-3.873.052s-.831.16-1.926-.568c-.574-.38-1.134-1.002-1.668-1.594-.816-.904-1.569-1.739-2.212-1.541-1.08.332-1.046 2.58-1.046 2.58s.008.481-.237.736z" fill="#203686"/></svg>
